Adwaita++-Light/panel/16/network-wireless-connected.svg

<svg height="16" width="16" xmlns="http://www.w3.org/2000/svg">
  <path d="m8 2c-3.0506 0-5.9194 1.0732-8 3l8 9 8-9c-2.081-1.9269-4.949-3-8-3zm0 2c1.7795 0 3.453.626 4.666 1.75l-4.666 5.25-4.666-5.25c1.2137-1.124 2.8865-1.75 4.666-1.75z" fill="#444"/>
</svg>

<svg xmlns="http://www.w3.org/2000/svg" width="16" height="16" version="1.1">
 <defs>
  <style id="current-color-scheme" type="text/css">
   .ColorScheme-Text { color:#444444; } .ColorScheme-Highlight { color:#4285f4; }
  </style>
 </defs>
 <path style="fill:currentColor" class="ColorScheme-Text" d="M 8,2 C 4.9494,2 2.0806,3.0732 0,5 L 8,14 16,5 C 13.919,3.0731 11.051,2 8,2 Z M 8,4 C 9.7795,4 11.453,4.626 12.666,5.75 L 8,11 3.334,5.75 C 4.5477,4.626 6.2205,4 8,4 Z"/>
</svg>
